frontend/public/svg/objects/crown.svg

<svg width="154" height="136" viewBox="0 0 154 136" fill="none" xmlns="http://www.w3.org/2000/svg">
<g clip-path="url(#clip0)">
<path d="M127.902 44.3342C125.623 44.3703 124.281 43.7653 123.466 42.1855C122.69 40.6838 123.198 39.3362 124.022 38.0938C124.455 37.4383 125.018 36.8796 125.678 36.4529C129.18 34.2536 132.67 32.0219 136.285 30.0208C137.482 29.4368 138.822 29.2089 140.145 29.3644C140.758 29.4343 141.346 29.6482 141.86 29.9886C142.375 30.329 142.801 30.7863 143.106 31.3231C143.41 31.8598 143.582 32.4609 143.61 33.0772C143.637 33.6935 143.519 34.3075 143.263 34.8691C142.619 36.2881 141.598 37.503 140.31 38.3813C137.073 40.345 133.647 42.0049 130.25 43.6937C129.497 44.0034 128.708 44.2187 127.902 44.3342Z" fill="black"/>
<path d="M21.6685 49.0745C20.9465 48.6676 19.311 48.0954 18.1598 47.0071C16.3063 45.218 14.6241 43.2597 13.1348 41.1578C12.3408 40.0882 11.8856 38.8053 11.828 37.4746C11.8549 35.0461 14.4127 33.2943 17.0006 34.16C19.1481 34.8232 21.1433 35.9043 22.8714 37.3414C24.5996 38.7784 26.0265 40.5431 27.0702 42.5336C28.8154 45.9413 26.4105 49.1848 21.6685 49.0745Z" fill="black"/>
<path d="M114.501 0.366583C117.943 0.34558 120.014 2.92035 119.334 5.62578C119.145 6.50263 118.742 7.31858 118.158 7.99973C115.827 10.4072 113.475 12.8134 110.939 14.997C109.707 16.0563 108.152 16.8478 106.282 16.2177C104.105 15.484 103.055 13.6935 103.761 11.5256C103.943 10.8763 104.25 10.2683 104.663 9.73509C106.852 7.19703 109.013 4.62155 111.374 2.24955C112.345 1.27423 113.795 0.776793 114.501 0.366583Z" fill="black"/>
<path d="M53.3557 13.062C53.1588 15.0507 52.3273 16.5229 50.5335 17.3886C48.8559 18.1972 47.404 17.6419 46.2384 16.488C43.7066 14.0883 41.8036 11.1029 40.697 7.79478C39.9586 5.45625 40.653 3.50178 42.347 2.45098C44.1486 1.33521 46.1072 1.49196 47.8182 3.3238C50.4285 6.12242 52.618 9.22763 53.3557 13.062Z" fill="black"/>
<path d="M152.875 64.8372C152.824 63.1477 152.525 61.4751 151.985 59.8733C151.203 57.7487 149.793 56.3054 148.026 55.8204C146.239 55.3275 144.269 55.8604 142.482 57.3103C141.133 58.4031 139.812 59.597 138.537 60.7501C138.012 61.222 137.487 61.7011 136.962 62.1664L129.961 68.391C124.248 73.4697 118.532 78.5484 112.81 83.6265C112.4 83.9698 111.968 84.2855 111.516 84.5703C111.333 84.6918 111.145 84.8132 110.956 84.9484C110.828 85.0357 110.682 85.0928 110.529 85.1151C110.376 85.1381 110.22 85.1263 110.072 85.0797C109.923 85.0337 109.788 84.9536 109.675 84.846C109.563 84.7384 109.477 84.6058 109.424 84.4594C108.15 80.9723 106.909 77.5022 105.668 74.046C102.912 66.3668 100.057 58.4201 97.0702 50.7318C92.9083 40.0335 88.4439 29.6554 84.2493 20.0315C83.1545 17.7057 81.6672 15.5862 79.8518 13.7662C78.2195 12.0597 76.4323 11.9317 74.0649 13.3684C72.1365 14.5282 71.3135 16.5379 70.4432 18.6625L70.3625 18.8594C69.4928 20.9636 68.6324 23.0723 67.7798 25.1857C65.1695 31.5929 62.4719 38.2291 59.6057 44.6632C55.2738 54.3947 50.5883 64.1676 46.1573 73.345C44.6536 76.4606 43.0148 79.4548 41.2814 82.625C40.4938 84.0689 39.6898 85.5384 38.8871 87.0493C38.8223 87.1727 38.7329 87.281 38.6244 87.3677C38.5158 87.4543 38.3905 87.518 38.2563 87.5541C38.1221 87.5902 37.9818 87.598 37.8444 87.5777C37.707 87.5567 37.5752 87.5081 37.4576 87.4339L34.611 85.6461C32.8035 84.5198 31.158 83.4953 29.5192 82.4563C27.2128 80.9999 24.9062 79.5408 22.5994 78.0792C18.0812 75.2129 13.5581 72.3579 9.03026 69.514C8.01503 68.771 6.81172 68.3266 5.55691 68.2328C4.63274 68.2623 3.75076 68.6266 3.0753 69.258C1.08528 70.8896 0.525441 72.9066 1.36883 75.4276C1.90834 77.0526 2.63688 78.6718 3.33785 80.2431L3.37198 80.3087C3.9384 81.584 4.55862 82.8717 5.15195 84.1194C6.27166 86.4731 7.43864 88.9107 8.37589 91.4048C8.97618 92.9826 9.57876 94.5631 10.1834 96.1462C14.048 106.269 18.0405 116.736 20.6507 127.513C21.5342 131.169 23.6449 133.145 27.1045 133.556C28.0555 133.671 29.0079 133.792 29.951 133.914C33.8317 134.498 37.7484 134.812 41.6726 134.851C50.5883 134.737 59.6523 134.406 68.4204 134.089C72.2777 133.947 76.133 133.813 79.9864 133.685C86.3128 133.482 92.6392 133.288 98.965 133.105L106.229 132.882C106.815 132.868 107.402 132.848 107.996 132.835C108.636 132.821 109.284 132.801 109.931 132.781C112.177 132.715 114.423 132.625 116.668 132.545C122.182 132.343 127.871 132.133 133.482 132.1C136.072 132.086 137.9 131.181 139.242 129.26C140.167 127.85 140.87 126.306 141.326 124.681L142.054 122.293C145.028 112.555 148.097 102.479 149.904 92.2817C150.08 91.2899 150.262 90.3054 150.437 89.3137C151.877 81.3471 153.374 73.0916 152.875 64.8372ZM130.396 120.403C130.332 120.581 130.219 120.737 130.07 120.853C129.921 120.969 129.741 121.04 129.554 121.059C128.744 121.147 127.908 121.248 127.065 121.35C125.136 121.586 123.133 121.829 121.11 121.916C117.791 122.058 114.42 122.159 111.162 122.244C106.819 122.375 102.327 122.5 97.9228 122.743C92.7908 123.033 87.5703 123.458 82.5257 123.869C79.626 124.106 76.7257 124.342 73.826 124.55C69.5906 124.861 66.0562 125.11 62.3741 125.225C53.3029 125.515 44.0833 125.75 35.1676 125.981L30.7504 126.095H30.6487C30.2384 126.086 29.8299 126.038 29.4286 125.953C29.2934 125.926 29.1588 125.899 29.0302 125.887C28.8387 125.861 28.6589 125.78 28.5119 125.655C28.3649 125.529 28.2569 125.364 28.2006 125.179L16.4863 87.0743C16.424 86.878 16.4238 86.6667 16.4855 86.4698C16.5472 86.2729 16.668 86.1003 16.8314 85.9743C16.9947 85.8482 17.1929 85.7754 17.399 85.7662C17.605 85.7563 17.809 85.8102 17.9834 85.9204L19.5008 86.8583C20.5057 87.4786 21.4298 88.045 22.3401 88.6252C23.6348 89.4482 24.9298 90.2667 26.225 91.0799C29.4351 93.1099 32.7602 95.201 35.9637 97.3722C38.0135 98.7617 39.8079 99.2946 41.2847 98.9573C42.7286 98.6291 44.0026 97.4871 45.1695 95.4708L46.2197 93.6698C48.2025 90.2706 50.2529 86.75 51.9587 83.1684C57.6032 71.2716 63.2621 59.1323 68.7321 47.3904C70.8902 42.757 73.0528 38.1237 75.22 33.4905C75.4018 33.0966 75.5909 32.7145 75.8606 32.1822L76.3798 31.1367C76.4631 30.9612 76.597 30.8144 76.7637 30.7148C76.9311 30.6152 77.1234 30.5673 77.3177 30.577C77.5113 30.5817 77.6997 30.642 77.8598 30.7508C78.02 30.8597 78.1453 31.0123 78.2208 31.1905C79.0169 33.0657 79.8196 34.8798 80.6086 36.6604C82.3216 40.5328 83.9401 44.1868 85.323 47.9837C88.4859 56.6907 91.5812 65.5735 94.5826 74.1713C96.3022 79.0952 98.0291 84.021 99.7625 88.9481C100.619 91.4606 101.619 93.9218 102.757 96.3194C103.131 97.1943 103.705 97.9688 104.434 98.5805C105.163 99.1922 106.025 99.6234 106.952 99.84C108.766 100.198 110.681 99.5703 112.354 98.0797C114.896 95.8141 117.426 93.5274 119.955 91.2479C122.174 89.2448 124.392 87.2462 126.611 85.2523C129.437 82.7306 132.272 80.2142 135.115 77.7044L138.922 74.3387C139.063 74.2146 139.234 74.1313 139.418 74.0985C139.603 74.065 139.793 74.0834 139.968 74.1503L140.669 74.4266C140.883 74.5106 141.064 74.6649 141.179 74.8651C141.294 75.0653 141.338 75.2983 141.303 75.526C139.231 88.7453 136.318 104.419 130.396 120.403Z" fill="black"/>
</g>
<defs>
<clipPath id="clip0">
<rect width="152.927" height="135.206" fill="white" transform="translate(0.682373 0.0187988)"/>
</clipPath>
</defs>
</svg>

<svg xmlns="http://www.w3.org/2000/svg" width="154" height="136" fill="none" viewBox="0 0 154 136"><g fill="#000" clip-path="url(#a)"><path d="M127.902 44.334c-2.279.036-3.621-.569-4.436-2.149-.776-1.501-.268-2.849.556-4.091a5.7 5.7 0 0 1 1.656-1.641c3.502-2.2 6.992-4.431 10.607-6.432a6.95 6.95 0 0 1 3.86-.657 3.91 3.91 0 0 1 2.961 1.96 3.92 3.92 0 0 1 .157 3.545 8.5 8.5 0 0 1-2.953 3.512c-3.237 1.964-6.663 3.624-10.06 5.313a10 10 0 0 1-2.348.64M21.669 49.075c-.723-.407-2.358-.98-3.51-2.068a41.4 41.4 0 0 1-5.024-5.85 6.66 6.66 0 0 1-1.307-3.682c.027-2.429 2.585-4.18 5.173-3.315a17.05 17.05 0 0 1 10.07 8.374c1.744 3.407-.66 6.65-5.402 6.54M114.501.367c3.442-.021 5.513 2.553 4.833 5.259A5.4 5.4 0 0 1 118.158 8c-2.331 2.407-4.683 4.813-7.219 6.997-1.232 1.06-2.787 1.85-4.657 1.22-2.177-.733-3.227-2.523-2.521-4.691.182-.65.489-1.258.902-1.79 2.189-2.539 4.35-5.114 6.711-7.486.971-.976 2.421-1.473 3.127-1.883M53.356 13.062c-.197 1.989-1.029 3.46-2.823 4.327-1.677.808-3.129.253-4.295-.901a21.3 21.3 0 0 1-5.541-8.693c-.738-2.339-.044-4.293 1.65-5.344 1.802-1.116 3.76-.959 5.471.873 2.61 2.798 4.8 5.904 5.538 9.738"/><path d="M152.875 64.837a17.2 17.2 0 0 0-.89-4.964c-.782-2.124-2.192-3.568-3.959-4.053-1.787-.492-3.757.04-5.544 1.49-1.349 1.093-2.67 2.287-3.945 3.44-.525.472-1.05.951-1.575 1.416l-7.001 6.225a27301 27301 0 0 1-17.151 15.235q-.615.517-1.294.944c-.183.122-.371.243-.56.378a1.02 1.02 0 0 1-.884.132 1 1 0 0 1-.648-.62c-1.274-3.488-2.515-6.958-3.756-10.414-2.756-7.68-5.611-15.626-8.598-23.314-4.162-10.699-8.626-21.077-12.82-30.7a22.4 22.4 0 0 0-4.398-6.266c-1.633-1.706-3.42-1.834-5.787-.398-1.928 1.16-2.751 3.17-3.622 5.295l-.08.196q-1.304 3.157-2.583 6.327c-2.61 6.407-5.308 13.043-8.174 19.477-4.332 9.732-9.018 19.505-13.449 28.682-1.503 3.116-3.142 6.11-4.876 9.28-.787 1.444-1.591 2.913-2.394 4.424a1.006 1.006 0 0 1-1.43.385l-2.846-1.788c-1.807-1.126-3.453-2.15-5.092-3.19a5345 5345 0 0 1-6.92-4.377A3563 3563 0 0 0 9.03 69.514a6.73 6.73 0 0 0-3.473-1.281 3.8 3.8 0 0 0-2.482 1.025c-1.99 1.632-2.55 3.649-1.706 6.17.54 1.625 1.268 3.244 1.969 4.815l.034.066c.566 1.275 1.187 2.563 1.78 3.81 1.12 2.354 2.287 4.792 3.224 7.286l1.807 4.741c3.865 10.123 7.858 20.59 10.468 31.367.883 3.656 2.994 5.632 6.454 6.043.95.115 1.903.236 2.846.358 3.88.584 7.797.898 11.722.937 8.915-.114 17.98-.445 26.747-.762q5.787-.213 11.566-.404 9.49-.305 18.979-.58l7.264-.223c.586-.014 1.173-.034 1.767-.047.64-.014 1.288-.034 1.935-.054 2.246-.066 4.492-.156 6.737-.236 5.514-.202 11.203-.412 16.814-.445 2.59-.014 4.418-.919 5.76-2.84a16.5 16.5 0 0 0 2.084-4.579l.728-2.388c2.974-9.738 6.043-19.814 7.85-30.011.176-.992.358-1.977.533-2.968 1.44-7.967 2.937-16.222 2.438-24.477m-22.479 55.566a1 1 0 0 1-.842.656c-.81.088-1.646.189-2.489.291-1.929.236-3.932.479-5.955.566-3.319.142-6.69.243-9.948.328-4.343.131-8.835.256-13.24.499-5.131.29-10.352.715-15.396 1.126-2.9.237-5.8.473-8.7.681-4.235.311-7.77.56-11.452.675-9.071.29-18.29.525-27.206.756l-4.418.114h-.101a6.6 6.6 0 0 1-1.22-.142c-.136-.027-.27-.054-.399-.066a1.01 1.01 0 0 1-.83-.708L16.487 87.074a1.006 1.006 0 0 1 1.497-1.154l1.518.938c1.005.62 1.929 1.187 2.84 1.767q1.941 1.235 3.884 2.455c3.21 2.03 6.535 4.121 9.739 6.292 2.05 1.39 3.844 1.923 5.32 1.585 1.445-.328 2.719-1.47 3.886-3.486l1.05-1.801c1.983-3.4 4.033-6.92 5.739-10.502 5.644-11.896 11.303-24.036 16.773-35.778a9415 9415 0 0 1 6.488-13.9c.182-.393.37-.776.64-1.308l.52-1.045a.98.98 0 0 1 .938-.56 1.01 1.01 0 0 1 .903.613c.796 1.876 1.599 3.69 2.388 5.47 1.713 3.873 3.331 7.527 4.714 11.324 3.163 8.707 6.258 17.59 9.26 26.187q2.58 7.386 5.18 14.777a70 70 0 0 0 2.994 7.371 6.06 6.06 0 0 0 4.195 3.521c1.814.358 3.729-.27 5.402-1.76 2.542-2.266 5.072-4.553 7.601-6.832q3.328-3.005 6.656-5.996 4.24-3.782 8.504-7.548l3.807-3.365a1.02 1.02 0 0 1 1.046-.189l.701.277a1.016 1.016 0 0 1 .634 1.099c-2.072 13.22-4.985 28.893-10.907 44.877"/></g><defs><clipPath id="a"><path fill="#fff" d="M.682.019H153.61v135.206H.682z"/></clipPath></defs></svg>
